SVG_Azure_All/Authentication Context.svg

<?xml version="1.0" encoding="UTF-8" standalone="no"?>
<!-- Generated by Microsoft Visio, SVG Export Authentication Context.svg Page-1 -->

<svg
   xmlns:dc="http://purl.org/dc/elements/1.1/"
   xmlns:cc="http://creativecommons.org/ns#"
   xmlns:rdf="http://www.w3.org/1999/02/22-rdf-syntax-ns#"
   xmlns:svg="http://www.w3.org/2000/svg"
   xmlns="http://www.w3.org/2000/svg"
   xmlns:xlink="http://www.w3.org/1999/xlink"
   xmlns:sodipodi="http://sodipodi.sourceforge.net/DTD/sodipodi-0.dtd"
   xmlns:inkscape="http://www.inkscape.org/namespaces/inkscape"
   width="0.78741515in"
   height="0.78735834in"
   viewBox="0 0 56.693799 56.690111"
   xml:space="preserve"
   class="st5"
   version="1.1"
   id="svg52"
   sodipodi:docname="Authentication Context.svg"
   style="font-size:12px;overflow:visible;color-interpolation-filters:sRGB;fill:none;fill-rule:evenodd;stroke-linecap:square;stroke-miterlimit:3"
   inkscape:version="0.92.5 (2060ec1f9f, 2020-04-08)"><metadata
   id="metadata56"><rdf:RDF><cc:Work
       rdf:about=""><dc:format>image/svg+xml</dc:format><dc:type
         rdf:resource="http://purl.org/dc/dcmitype/StillImage" /></cc:Work></rdf:RDF></metadata><sodipodi:namedview
   pagecolor="#ffffff"
   bordercolor="#666666"
   borderopacity="1"
   objecttolerance="10"
   gridtolerance="10"
   guidetolerance="10"
   inkscape:pageopacity="0"
   inkscape:pageshadow="2"
   inkscape:window-width="640"
   inkscape:window-height="480"
   id="namedview54"
   showgrid="false"
   inkscape:zoom="1.4193119"
   inkscape:cx="37.795128"
   inkscape:cy="37.786205"
   inkscape:window-x="0"
   inkscape:window-y="0"
   inkscape:window-maximized="0"
   inkscape:current-layer="svg52" />
	<style
   type="text/css"
   id="style2">
	<![CDATA[
		.st1 {fill:#50e6ff;stroke:none;stroke-linecap:butt;stroke-width:34}
		.st2 {fill:#0078d4;stroke:none;stroke-linecap:butt;stroke-width:34}
		.st3 {fill:#ffffff;stroke:none;stroke-linecap:butt;stroke-width:34}
		.st4 {fill:url(#grad0-12);stroke:none;stroke-linecap:butt;stroke-width:34}
		.st5 {fill:none;fill-rule:evenodd;font-size:12px;overflow:visible;stroke-linecap:square;stroke-miterlimit:3}
	]]>
	</style>

	<defs
   id="Patterns_And_Gradients">
		<linearGradient
   id="grad0-12"
   x1="0"
   y1="0"
   x2="1"
   y2="0"
   gradientTransform="rotate(-90,0.5,0.5)">
			<stop
   offset="0"
   stop-color="#76bc2d"
   stop-opacity="1"
   id="stop4" />
			<stop
   offset="0.6"
   stop-color="#81ce31"
   stop-opacity="1"
   id="stop6" />
			<stop
   offset="0.82"
   stop-color="#86d633"
   stop-opacity="1"
   id="stop8" />
		</linearGradient>
	<linearGradient
   inkscape:collect="always"
   xlink:href="#grad0-12"
   id="linearGradient4566"
   gradientTransform="scale(1.0124794,0.98767446)"
   x1="0"
   y1="110.94748"
   x2="15.318831"
   y2="110.94748"
   gradientUnits="userSpaceOnUse" /><linearGradient
   inkscape:collect="always"
   xlink:href="#grad0-12"
   id="linearGradient4568"
   gradientTransform="scale(1.0124794,0.98767446)"
   x1="0"
   y1="110.94748"
   x2="15.318831"
   y2="110.94748"
   gradientUnits="userSpaceOnUse" /><linearGradient
   inkscape:collect="always"
   xlink:href="#grad0-12"
   id="linearGradient4570"
   gradientTransform="scale(1.0124794,0.98767446)"
   x1="0"
   y1="110.94748"
   x2="15.318831"
   y2="110.94748"
   gradientUnits="userSpaceOnUse" /></defs>
	<g
   id="g50"
   transform="translate(-34.000441,-34.004199)">
		<title
   id="title12">Page-1</title>
		<g
   id="group9070-1"
   transform="translate(34,-34.0157)">
			<title
   id="title14">Authentication Context</title>
			<g
   id="group9071-2">
				<title
   id="title16">MsPortalFx.base.images-46</title>
				<g
   id="shape9072-3"
   transform="translate(5.39025,-14.8661)">
					<title
   id="title18">Sheet.9072</title>
					<path
   d="M 43.98,107.66 H 26.35 a 0.946281,0.922835 0 0 1 -0.946281,-0.92284 L 25.41,100.18 h -4.74 v 6.56 a 0.949511,0.925984 0 0 1 -0.946281,0.92284 L 1.9,107.66 A 1.89579,1.84882 -180 0 0 0,109.51 v 8.51 h 4.73 v -4.73 a 0.949511,0.925984 0 0 1 0.949511,-0.92284 L 20.67,112.37 v 12.34 h 4.74 v -12.32 h 14.78 a 0.946281,0.922835 0 0 1 0.946281,0.92284 L 41.14,118.13 h 4.75 v -8.62 a 1.89579,1.84882 -180 0 0 -1.91,-1.85 z"
   class="st1"
   id="path20"
   inkscape:connector-curvature="0"
   style="fill:#50e6ff;stroke:none;stroke-width:34;stroke-linecap:butt" />
				</g>
				<g
   id="shape9073-5"
   transform="translate(18.7512,-38.1701)">
					<title
   id="title23">Sheet.9073</title>
					<path
   d="m 0,123.03 a 1.7182,1.67563 -180 0 0 1.72,1.68 h 15.56 a 1.7182,1.67563 -180 0 0 1.71,-1.68 v -15.17 a 1.7182,1.67563 -180 0 0 -1.71,-1.67 H 1.72 A 1.7182,1.67563 -180 0 0 0,107.86 Z"
   class="st2"
   id="path25"
   inkscape:connector-curvature="0"
   style="fill:#0078d4;stroke:none;stroke-width:34;stroke-linecap:butt" />
				</g>
				<g
   id="shape9074-7"
   transform="translate(22.3975,-41.726)">
					<title
   id="title28">Sheet.9074</title>
					<path
   d="m 0,123.68 a 1.05934,1.03309 -180 0 0 1.06,1.03 h 9.58 a 1.05934,1.03309 -180 0 0 1.06,-1.03 v -9.35 A 1.05934,1.03309 -180 0 0 10.64,113.3 H 1.06 A 1.05934,1.03309 -180 0 0 0,114.33 Z"
   class="st3"
   id="path30"
   inkscape:connector-curvature="0"
   style="fill:#ffffff;stroke:none;stroke-width:34;stroke-linecap:butt" />
				</g>
				<g
   id="shape9075-9"
   transform="translate(0,-6.39685)">
					<title
   id="title33">Sheet.9075</title>
					<path
   d="m 0,123.34 a 1.40492,1.37011 -180 0 0 1.4,1.37 h 12.7 a 1.40492,1.37011 -180 0 0 1.41,-1.37 V 110.95 A 1.40492,1.37011 -180 0 0 14.1,109.58 H 1.4 A 1.40492,1.37011 -180 0 0 0,110.95 Z"
   class="st4"
   id="path35"
   inkscape:connector-curvature="0"
   style="fill:url(#linearGradient4566);stroke:none;stroke-width:34;stroke-linecap:butt" />
				</g>
				<g
   id="shape9076-13"
   transform="translate(20.6729)">
					<title
   id="title38">Sheet.9076</title>
					<path
   d="m 0,123.34 a 1.40492,1.37011 -180 0 0 1.4,1.37 h 12.7 a 1.40492,1.37011 -180 0 0 1.41,-1.37 V 110.95 A 1.40492,1.37011 -180 0 0 14.1,109.58 H 1.4 A 1.40492,1.37011 -180 0 0 0,110.95 Z"
   class="st4"
   id="path40"
   inkscape:connector-curvature="0"
   style="fill:url(#linearGradient4568);stroke:none;stroke-width:34;stroke-linecap:butt" />
				</g>
				<g
   id="shape9077-16"
   transform="translate(41.1842,-6.29606)">
					<title
   id="title43">Sheet.9077</title>
					<path
   d="m 0,123.34 a 1.40492,1.37011 -180 0 0 1.4,1.37 h 12.7 a 1.40492,1.37011 -180 0 0 1.41,-1.37 V 110.95 A 1.40492,1.37011 -180 0 0 14.1,109.58 H 1.4 A 1.40492,1.37011 -180 0 0 0,110.95 Z"
   class="st4"
   id="path45"
   inkscape:connector-curvature="0"
   style="fill:url(#linearGradient4570);stroke:none;stroke-width:34;stroke-linecap:butt" />
				</g>
			</g>
		</g>
	</g>
</svg>

<?xml version="1.0" encoding="UTF-8" standalone="no"?>
<!DOCTYPE svg PUBLIC "-//W3C//DTD SVG 1.1//EN" "http://www.w3.org/Graphics/SVG/1.1/DTD/svg11.dtd">
<!-- Generated by Microsoft Visio, SVG Export Authentication Context.svg Page-1 -->
<svg xmlns="http://www.w3.org/2000/svg" xmlns:xlink="http://www.w3.org/1999/xlink" xmlns:ev="http://www.w3.org/2001/xml-events"
		width="1.73185in" height="1.73206in" viewBox="0 0 124.693 124.709" xml:space="preserve" color-interpolation-filters="sRGB"
		class="st5">
	<style type="text/css">
	<![CDATA[
		.st1 {fill:#50e6ff;stroke:none;stroke-linecap:butt;stroke-width:34}
		.st2 {fill:#0078d4;stroke:none;stroke-linecap:butt;stroke-width:34}
		.st3 {fill:#ffffff;stroke:none;stroke-linecap:butt;stroke-width:34}
		.st4 {fill:url(#grad0-12);stroke:none;stroke-linecap:butt;stroke-width:34}
		.st5 {fill:none;fill-rule:evenodd;font-size:12px;overflow:visible;stroke-linecap:square;stroke-miterlimit:3}
	]]>
	</style>

	<defs id="Patterns_And_Gradients">
		<linearGradient id="grad0-12" x1="0" y1="0" x2="1" y2="0" gradientTransform="rotate(-90 0.5 0.5)">
			<stop offset="0" stop-color="#76bc2d" stop-opacity="1"/>
			<stop offset="0.6" stop-color="#81ce31" stop-opacity="1"/>
			<stop offset="0.82" stop-color="#86d633" stop-opacity="1"/>
		</linearGradient>
	</defs>
	<g>
		<title>Page-1</title>
		<g id="group8875-1" transform="translate(34,-34.0157)">
			<title>Authentication Context</title>
			<g id="group8876-2">
				<title>MsPortalFx.base.images-46</title>
				<g id="shape8877-3" transform="translate(5.39025,-14.8661)">
					<title>Sheet.8877</title>
					<path d="M43.98 107.66 L26.35 107.66 a0.946281 0.922835 0 0 1 -0.946281 -0.922835 L25.41 100.18 L20.67 100.18
								 L20.67 106.74 a0.949511 0.925984 0 0 1 -0.946281 0.922835 L1.9 107.66 A1.89579 1.84882 -180 0 0
								 0 109.51 L0 118.02 L4.73 118.02 L4.73 113.29 a0.949511 0.925984 0 0 1 0.949511 -0.922835 L20.67
								 112.37 L20.67 124.71 L25.41 124.71 L25.41 112.39 L40.19 112.39 a0.946281 0.922835 0 0 1 0.946281
								 0.922835 L41.14 118.13 L45.89 118.13 L45.89 109.51 A1.89579 1.84882 -180 0 0 43.98 107.66 Z"
							class="st1"/>
				</g>
				<g id="shape8878-5" transform="translate(18.7512,-38.1701)">
					<title>Sheet.8878</title>
					<path d="M-0 123.03 A1.7182 1.67563 -180 0 0 1.72 124.71 L17.28 124.71 A1.7182 1.67563 -180 0 0 18.99 123.03
								 L18.99 107.86 A1.7182 1.67563 -180 0 0 17.28 106.19 L1.72 106.19 A1.7182 1.67563 -180 0 0 0 107.86
								 L0 123.03 Z" class="st2"/>
				</g>
				<g id="shape8879-7" transform="translate(22.3975,-41.726)">
					<title>Sheet.8879</title>
					<path d="M0 123.68 A1.05934 1.03309 -180 0 0 1.06 124.71 L10.64 124.71 A1.05934 1.03309 -180 0 0 11.7 123.68
								 L11.7 114.33 A1.05934 1.03309 -180 0 0 10.64 113.3 L1.06 113.3 A1.05934 1.03309 -180 0 0 -0 114.33
								 L0 123.68 Z" class="st3"/>
				</g>
				<g id="shape8880-9" transform="translate(0,-6.39685)">
					<title>Sheet.8880</title>
					<path d="M0 123.34 A1.40492 1.37011 -180 0 0 1.4 124.71 L14.1 124.71 A1.40492 1.37011 -180 0 0 15.51 123.34 L15.51
								 110.95 A1.40492 1.37011 -180 0 0 14.1 109.58 L1.4 109.58 A1.40492 1.37011 -180 0 0 0 110.95 L0 123.34
								 Z" class="st4"/>
				</g>
				<g id="shape8881-13" transform="translate(20.6729,1.42109E-14)">
					<title>Sheet.8881</title>
					<path d="M0 123.34 A1.40492 1.37011 -180 0 0 1.4 124.71 L14.1 124.71 A1.40492 1.37011 -180 0 0 15.51 123.34 L15.51
								 110.95 A1.40492 1.37011 -180 0 0 14.1 109.58 L1.4 109.58 A1.40492 1.37011 -180 0 0 0 110.95 L0 123.34
								 Z" class="st4"/>
				</g>
				<g id="shape8882-16" transform="translate(41.1842,-6.29606)">
					<title>Sheet.8882</title>
					<path d="M0 123.34 A1.40492 1.37011 -180 0 0 1.4 124.71 L14.1 124.71 A1.40492 1.37011 -180 0 0 15.51 123.34 L15.51
								 110.95 A1.40492 1.37011 -180 0 0 14.1 109.58 L1.4 109.58 A1.40492 1.37011 -180 0 0 0 110.95 L0 123.34
								 Z" class="st4"/>
				</g>
			</g>
		</g>
	</g>
</svg>
